X: 1
T: The Broomielaw
R: reel
M: 4/4
L: 1/8
K: Emin
B2 Ad E4|EAAG FGAd|B2 Ad E4|EAAG FD F/G/A|
B2 Ad E4|EAAG FGAd|B2 Ad E4|EAAG FD D2||
|:EAAG A3 G|EAAG FGAd|EAAG A3 B|cBAG F/E/D FG:|

